src/assets/filled/Note2.svg

<svg width="24" height="24" viewBox="0 0 24 24"  xmlns="http://www.w3.org/2000/svg">
<path d="M13.5501 20.1599C13.2901 20.2699 13.0101 20.3699 12.7101 20.4699L11.1301 20.9899C7.1601 22.2699 5.0701 21.1999 3.7801 17.2299L2.5001 13.2799C1.2201 9.30992 2.2801 7.20992 6.2501 5.92992L7.7901 5.41992C7.6001 5.89992 7.4401 6.44992 7.2901 7.06992L6.3101 11.2599C5.2101 15.9699 6.8201 18.5699 11.5301 19.6899L13.2101 20.0899C13.3201 20.1199 13.4401 20.1399 13.5501 20.1599Z" />
<path d="M17.1699 3.21001L15.4999 2.82001C12.1599 2.03001 10.1699 2.68001 8.99994 5.10001C8.69994 5.71001 8.45994 6.45001 8.25994 7.30001L7.27994 11.49C6.29994 15.67 7.58994 17.73 11.7599 18.72L13.4399 19.12C14.0199 19.26 14.5599 19.35 15.0599 19.39C18.1799 19.69 19.8399 18.23 20.6799 14.62L21.6599 10.44C22.6399 6.26001 21.3599 4.19001 17.1699 3.21001Z" />
</svg>

<?xml version="1.0" encoding="UTF-8"?>
<svg width="24" height="24" viewBox="0 0 24 24" xmlns="http://www.w3.org/2000/svg">
 <path d="m13.55 20.16c-0.26 0.11-0.54 0.21-0.84 0.31l-1.58 0.52c-3.97 1.28-6.06 0.21-7.35-3.76l-1.28-3.95c-1.28-3.97-0.22-6.07 3.75-7.35l1.54-0.51c-0.19 0.48-0.35 1.03-0.5 1.65l-0.98 4.19c-1.1 4.71 0.51 7.31 5.22 8.43l1.68 0.4c0.11 0.03 0.23 0.05 0.34 0.07z"/>
 <path d="m17.17 3.21-1.67-0.39c-3.34-0.79-5.33-0.14-6.5 2.28-0.3 0.61-0.54 1.35-0.74 2.2l-0.98 4.19c-0.98 4.18 0.31 6.24 4.48 7.23l1.68 0.4c0.58 0.14 1.12 0.23 1.62 0.27 3.12 0.3 4.78-1.16 5.62-4.77l0.98-4.18c0.98-4.18-0.3-6.25-4.49-7.23z"/>
</svg>
